ph.svg

<svg fill="currentColor" viewBox="0 0 24 24"><path d="M13 7v10h2v-4h2v4h2V7h-2v4h-2V7zm-2 8v-2a2 2 0 0 0-2-2H5v10h2v-4h2c1.11 0 2-.89 2-2m-2 0H7v-2h2z"/></svg>

<svg  viewBox="0 0 24 24" fill="currentColor"><path  d="M13 7V17H15V13H17V17H19V7H17V11H15V7H13M11 15V13C11 11.9 10.11 11 9 11H5V21H7V17H9C10.11 17 11 16.11 11 15M9 15H7V13H9V15Z"/></svg>
